X:1
T:6 Lieder, Op. 6
T:An Luna
T:To Fräulein Angela Oppenhoff 
T:6 Lieder, Op. 6
T:Johanna Kinkel
T:4. An Luna
T:Johann Wolfgang von Goethe
T:Creative Commons copyright waiver (CC0 1.0 Universal)
T:Creative Commons copyright waiver (CC0 1.0 Universal)
C:Johanna Kinkel
Z:Johann Wolfgang von Goethe
Z:Creative Commons copyright waiver (CC0 1.0 Universal)
%%score 1 { ( 2 3 ) | ( 4 5 ) }
L:1/8
Q:1/4=108
M:4/4
K:Ab
V:1 treble nm="Voice\nSingstimme"
V:2 treble nm="Piano"
V:3 treble 
V:4 bass 
V:5 bass 
V:1
!p!"^Andantino" E6"^Full lyrics available at\nhttps://www.lieder.net/lieder/get_text.html?TextId=23568\n" E2 | %1
w: 1. Schwe- ster|
w: 2. For- schend|
w: 3. Des Be-|
 E4 A4 | (A3 G) (F2 G2) | A4 z4 | A4 (G2 A2) | B6 G2 | (F2 =E2) (=D2 C2) | !>!G4 !tenuto!.F4 | %8
w: von dem|er- * sten *|Licht,|Bild der *|Zärt- lich-|keit * in *|Trau- er!|
w: ü- ber-|sicht * dein *|Blick|ei- ne *|gross- ge-|mess- * ne *|Wei- te.|
w: schau- ens|hol- * des *|Glück|mil- dert *|sol- cher|Fer- * ne *|Qua- len,|
 A4 (B2 A2) | (A2 G2) (F2 E2) | (=D2 F2) (B2 A2) | A4 G4 | G4 B4 | %13
w: Ne- bel *|schwimmt * mit *|Sil- * ber *|schau- er|um dein|
w: He- be *|mich * an *|dei- * ne *|Sei- te!|Gieb der|
w: und ich *|samm- * le *|dei- * ne *|Strah- len,|und ich|
"^rall."[Q:1/4=104] (A_cBA GA)[Q:1/4=100] _CD | (!turn!E4[Q:1/4=92] (_c2) B2) |[Q:1/4=100] A4 z4 | %16
w: rei- * * * * * zen- *|des Ge- *|sicht.|
w: Schwär- * * * * * me- *|rei dies *|Glück.|
w: schär- * * * * * fe *|mei- nen *|Blick;|
"^a Tempo."[Q:1/4=108]!mp!!<(! ^G4"^cres     -     -     poco     -     -     a     -     -     poco." ^F2 =E2 | %17
w: Dei- nes *|
w: Und in *|
w: Hell und *|
 (=A2 =E2) E4 | ^G6 =B2 | (=B4 !tenuto!.=A4) | =A4 (G2 F2) | F6 _B2 | B4 (=A2 c2)!<)! | %23
w: lei- * sen|Fus- ses|Lauf _|weekt aus *|tag- ver-|schloss- nen *|
w: wol- * lust-|vol- ler|Ruh’ _|säh’ der *|weit- ver-|schlag’- ne *|
w: hel- * ler|wird es|schon _|um die *|un- ver-|hüll- ten *|
!mf! c4"^dimin." (B2 _A2) |!p! G4 (c2 B2) | A6 A2 | (A2 G2) (F2 G2) | A4 E2 z2 | %28
w: Höh- len *|trau- rig *|ab- ge-|schied- * ne *|See- len,|
w: Rit- ter *|durch das *|glä- ser-|ne * Ge- *|git- ter,|
w: Glie- der *|und nun *|zieht sie|mich * her- *|nie- der,|
!mf! (E2 A2) (A2 c2) | (!>!c3 B) AE CD | (E4 F2) G2 | !fermata!A4"_Göthe." !fermata!z4 :| %32
w: mich, * und *|nächt’- * * * ge *|Vö- * gel|auf.|
w: sei- * nes *|Mäd- * * * chens *|Näch- * ten|zu.|
w: wie * dich *|einst _ _ _ En- *|dy- * mi-|on.|
V:2
!p! !>!c4 !>!c4 | !>!e4 !>!c4 | !>!c4 !>!B4 | !>!c4 z4 | !>!c4 !>!c4 | !>!d4 !>!d4 | !>!c4 !>!B4 | %7
 !>!B4 !>!A4 | !>!=d4 !>!d4 | !>!e4 !>!B4 | !>!B4 !>!=d4 | !>!f4 !>!e4 | !>!e4 !>!d4 | %13
"^rall." !>!_c4 !>!A4 | !>!B4 !>!e4 | !>!_c4 z4 | %16
!<(! !>!=B4"^cres     -     -     poco     -     -     a     -     -     poco." !>!B4 | %17
 !>!c4 !>!=d4 | !>!=e4 !>!=d4 | !>!=d4 !>!c4 | !>!c4 !>!c4 | !>!_d4 !>!e4!<)! | %22
!mf!!>(! !>!f4 !>!e4 | !>!e4"_dimin." d2 c2!>)! |!p! !>!B4 !>!e4 | !>!f4 e2 c2 | !>!c4 !>!B4 | %27
 !>!c4 z4 |!mf! !>!c4 !>!e4 | !>!a4 e2 c2 | !>!c4 !>!B4 | %31
 !>!!fermata!c4 !fermata!A,2 !fermata!z2 :| %32
V:3
 cAEC cAEC | eAEC cAEC | cAED BGED | cAEC cAEC | cAFC cAFC | dGFD dGFD | cG=EC BGEC | BG=ED AFCA, | %8
 =dAFB, dAFB, | eGEB, BGEB, | BAFB, =dAFB, | fAFB, eGEB, | eGEB, dGEB, | _cAE_C AECE | %14
 B=GEB, e=GEB, | _cAF_C cAFC | =B^G=E=B, BGEB, | c=A=EC =d=A=EC | =e=B^G!courtesy!=E =dBGE | %19
 =d=BPF=D c=A=EC | c=A_EC cAEC | dBFD eBFD | fcBF ec=AF | ec=A_G dBFD | BGED eGED | fcAE eAEC | %26
 cGED BGED | cAEC cAEC | cAEC ecAE | acAE ecAE | cGED BGED | cAEC x4 :| %32
V:4
"_sempre marcato" A,,E,A,E, A,,E,A,E, | C,E,A,E, A,,E,A,E, | E,,B,,E,G, E,,B,,E,G, | %3
 A,,E,A,E, A,,E,A,E, | F,,C,F,A, F,,C,F,A, | B,,F,G,B, B,,F,G,B, | C,=E,G,B, =E,,C,E,G, | %7
 F,,D,=E,G, F,,C,F,C, | B,,F,A,F, B,,F,A,F, | B,,E,G,E, B,,E,G,E, | B,,F,A,F, B,,F,A,F, | %11
 E,,B,,F,A, E,,B,,E,G, | E,,B,,E,G, G,,B,,E,G, | A,,E,A,E, _C,E,A,E, | E,,B,,E,G, E,,B,,E,G, | %15
 A,,E,A,E, A,,E,A,E, | =E,,=B,,=E,^G, E,,B,,E,G, | =E,,C,=E,=A, E,,C,=E,=A, | %18
 =E,,=B,,=E,^G, E,,B,,E,G, | =A,,F,^G,F, A,,=E,=A,E, | F,,C,F,=A, F,,C,F,A, | %21
 F,,_D,F,B, F,,D,F,B, | F,,C,F,B, F,,C,F,=A, | B,,E,_G,=A, B,,D,F,B, | E,,B,,E,G, E,,B,,E,G, | %25
 A,,E,A,C C,E,A,E, | E,G,B,G, E,,B,,E,G, | A,,E,A,E, A,,E,A,E, | A,,E,A,E, C,E,A,C | %29
 E,E,A,C C,E,A,C | E,,B,,E,G, E,,B,,E,G, | A,,E,A,E, !fermata!A,,2 !fermata!z2 :| %32
V:5
 !>!A,,4 !>!A,,4 | !>!C,4 !>!A,,4 | !>!E,,4 !>!E,,4 | !>!A,,4 !>!A,,4 | !>!F,,4 !>!F,,4 | %5
 !>!B,,4 !>!B,,4 | !>!C,4 !>!=E,,4 | !>!F,,4 !>!F,,4 | !>!B,,4 !>!B,,4 | !>!B,,4 !>!B,,4 | %10
 !>!B,,4 !>!B,,4 | !>!E,,4 !>!E,,4 | !>!E,,4 !>!G,,4 | !>!A,,4 !>!_C,4 | !>!E,,4 !>!E,,4 | %15
 !>!A,,4 !>!A,,4 | !>!=E,,4 !>!E,,4 | !>!=E,,4 !>!E,,4 | !>!=E,,4 !>!E,,4 | !>!=A,,4 !>!A,,4 | %20
 !>!F,,4 !>!F,,4 | !>!F,,4 !>!F,,4 | !>!F,,4 !>!F,,4 | !>!B,,4 !>!B,,4 | !>!E,,4 !>!E,,4 | %25
 !>!A,,4 !>!C,4 | !>!E,4 !>!E,,4 | !>!A,,4 !>!A,,4 | !>!A,,4 !>!C,4 | !>!E,4 !>!C,4 | %30
 !>!E,,4 !>!E,,4 | !>!A,,4 x4 :| %32

